!!!OTL: HELL AUF DER WIESE FAENGT ES AN ZU SCHIESSEN
!!!ARE: Europa, Mitteleuropa, Deutschland, Oberdiebach am Rhein
!!!SCT: K2120
!!!YEM: Copyright 1995, estate of Helmut Schaffrath.
**kern
*ICvox
*Ivox
*M2/4
*k[b-e-a-]
*E-:
=1
{4b-
8cc
8cc
=2
4b-
4g}
=3
{8b-
8b-
8cc
8cc
=4
4b-
4g}
=5
{8b-
8b-
8b-
8e-
=6
4b-
4b-}
=7
{4b-
8b-
8e-
=8
4b-
4b-}
=9
{4b-
8b-
8b-
=10
4b-
8b-
8b-}
=11
{8b-
8b-
8cc
8cc
=12
8b-
8b-
8g}
{16g
16g
=13
8b-
8b-
8b-
8cc
=14
8b-
8b-
8g}
{8g
=15
8b-
8b-
8b-
8cc
=16
8b-
8a-
4g}
==
!!!AGN: Kinder - Lied, Reigen, Tanz - Spiel
!!!ONB: ESAC (Essen Associative Code) Database: KINDER
!!!AMT: simple duple
!!!AIN: vox
!!!EED: Helmut Schaffrath
!!!EEV: 1.0
*-
